X: 3
T: Cape Breton's Own
M: 6/8
L: 1/8
R: jig
K: Dmaj
|: B |\
A3 G3 | FAd fdA | GAc edc | dfe dcB |
A3 G3 | FAd fdA | GAc edc | dAF D2 :|
|: F |\
B2 c dcB | fBc dcB | c^AF FGF | fgf edc | 
B2 c dcB | fBc dcB |[1 c^AF gfe | dB^A B2 :|[2 fgf edc | dfe dc |]
